src/assets/duotone/MusicDashboard.svg

<svg width="24" height="24" viewBox="0 0 24 24"  xmlns="http://www.w3.org/2000/svg">
<path d="M7 2.05005V21.9501C3.85 21.6601 2 19.5501 2 16.1901V7.81006C2 4.45006 3.85 2.34005 7 2.05005Z" />
<path opacity="0.4" d="M22 7.81V16.19C22 19.83 19.83 22 16.19 22H7.81C7.53 22 7.26 21.99 7 21.95V2.04999C7.26 2.00999 7.53 2 7.81 2H16.19C19.83 2 22 4.17 22 7.81Z" />
<path d="M18.4902 6.8C18.1702 6.55 17.5902 6.31001 16.6702 6.56001L13.6902 7.38002C12.8002 7.61002 12.2202 8.36 12.2202 9.3V11.05V13.21C11.9902 13.13 11.7402 13.07 11.4802 13.07C10.2402 13.07 9.24023 14.08 9.24023 15.31C9.24023 16.54 10.2502 17.55 11.4802 17.55C12.7002 17.55 13.7002 16.56 13.7202 15.35C13.7202 15.34 13.7302 15.33 13.7302 15.32V11.62L17.7002 10.54V12.22C17.4702 12.14 17.2202 12.08 16.9502 12.08C15.7102 12.08 14.7102 13.09 14.7102 14.32C14.7102 15.56 15.7202 16.56 16.9502 16.56C18.1702 16.56 19.1702 15.57 19.1902 14.35C19.1902 14.34 19.2002 14.33 19.2002 14.31V9.55V8.47999C19.1802 7.71999 18.9502 7.16 18.4902 6.8ZM11.4702 16.05C11.0602 16.05 10.7302 15.72 10.7302 15.31C10.7302 14.9 11.0602 14.57 11.4702 14.57C11.8802 14.57 12.2102 14.9 12.2102 15.31C12.2102 15.72 11.8702 16.05 11.4702 16.05ZM16.9302 15.05C16.5202 15.05 16.1902 14.72 16.1902 14.31C16.1902 13.9 16.5202 13.57 16.9302 13.57C17.3402 13.57 17.6702 13.9 17.6702 14.31C17.6702 14.72 17.3402 15.05 16.9302 15.05Z" />
</svg>

<?xml version="1.0" encoding="UTF-8"?>
<svg width="24" height="24" viewBox="0 0 24 24" xmlns="http://www.w3.org/2000/svg">
 <path d="m7 2.05v19.9c-3.15-0.29-5-2.4-5-5.76v-8.38c0-3.36 1.85-5.47 5-5.76z"/>
 <path d="M22 7.81V16.19C22 19.83 19.83 22 16.19 22H7.81C7.53 22 7.26 21.99 7 21.95V2.04999C7.26 2.00999 7.53 2 7.81 2H16.19C19.83 2 22 4.17 22 7.81Z" opacity=".4"/>
 <path d="m18.49 6.8c-0.32-0.25-0.9-0.48999-1.82-0.23999l-2.98 0.82001c-0.89 0.23-1.47 0.97998-1.47 1.92v3.91c-0.23-0.08-0.48-0.14-0.74-0.14-1.24 0-2.24 1.01-2.24 2.24s1.01 2.24 2.24 2.24c1.22 0 2.22-0.99 2.24-2.2 0-0.01 0.01-0.02 0.01-0.03v-3.7l3.97-1.08v1.68c-0.23-0.08-0.48-0.14-0.75-0.14-1.24 0-2.24 1.01-2.24 2.24 0 1.24 1.01 2.24 2.24 2.24 1.22 0 2.22-0.99 2.24-2.21 0-0.01 0.01-0.02 0.01-0.04v-5.83c-0.02-0.76-0.25-1.32-0.71-1.68zm-7.02 9.25c-0.41 0-0.74-0.33-0.74-0.74s0.33-0.74 0.74-0.74 0.74 0.33 0.74 0.74-0.34 0.74-0.74 0.74zm5.46-1c-0.41 0-0.74-0.33-0.74-0.74s0.33-0.74 0.74-0.74 0.74 0.33 0.74 0.74-0.33 0.74-0.74 0.74z"/>
</svg>
